X:7
T:montebello 7-8
C:Richard Forest
N:Arranged robin.beech@mcgill.ca
R:seven-eight
M:7/8
L:1/8
K:Amin
EAc ecBA | FAc ecBA | GBc dBGd | edB GEED |
EAc ecBA | FAc ecBA | GBc dBGE |1 EDG A2A2 :|2 EDG A2ce |:
aec gecB | GBc dcBd | gdd fdgd | edf e2ce |
aec gecB | GBc dcBd | ged edBd |1 cBd cAcf :| cBd cBAG |]
